!!!!SEGMENT: pl-kk--kk-i-362--001_anonim--ave-hierarchia.krn
!!!id: 17xx:2054
!!!COM: Anonim
!!!COM-rism: pe30004985
!!!CDT:
!!!CNT:
!!!OTL: Ave Hierarchia
!!!PDT:
!!!SMS-siglum: PL-Kk
!!!SMS-shelfmark: Kk.I.362
!!!NIFC-rismID: 1001144502
!!!URL-scan: http://repozytorium.nifc.pl/skany/pl-kk-nut--i-362
!!!ONB-nifc: UWAGA: utwory w zbiorze: 1. Ave Hierarchia, 2. Ave Maria, 3. Sanctus sanctus, 4. Pleni sunt caeli
!!!SMS-variant:
!!!SMS-altvar:
**kern	**text	**text
*I"[Basso]	*	*
*I'[B.]	*	*
*clefF4	*	*
*k[b-]	*	*
*F:	*	*
*M2/2	*	*
*met(c|)	*	*
=1-	=1-	=1-
1F\	A 1.-	3 Tu
*2\right	*	*
2D,<\	-ve	es
2.F\	Hie-	c(a)e-
=2-	=2-	=2-
.	.	.
4E/	.	.
4D/	.	.
!LO:TX:t=P:problem:kreska pseudotaktowa	!	!
4C/	.	.
2BB-/	-rar-	.
2GG/	.	-li
=3-	=3-	=3-
0C/	-chi-	por-
=4-	=4-	=4-
2FF,</	-a	-ta
1F\	c(a)e-	ex
!LO:TX:t=P:problem:kreska pseudotaktowa	!	!
2E\	.	Te
=5-	=5-	=5-
1D\	-les-	lux
!LO:TX:t=P:problem:kreska pseudotaktowa	!	!
1C/,<	-tis	est
=6-	=6-	=6-
2.D\	et	or-
!LO:TX:t=P:problem:kreska pseudotaktowa	!	!
4E\	.	.
2F\	.	.
!LO:TX:t=P:problem:kreska pseudotaktowa	!	!
2E\	.	.
=7-	=7-	=7-
*lig	*	*
2F\	pi-	-ta
2G\	.	.
*Xlig	*	*
!LO:TX:t=P:problem:kreska pseudotaktowa	!	!
0C/	-a.	.
=8-	=8-	=8-
.	.	.
!!LO:LB:g=original
1G\	De-	ad
=9-	=9-	=9-
!LO:TX:t=P:problem:kreska pseudotaktowa	!	!
1C/	-i	c(a)e-
2.F\	Mo-	-lum
!LO:TX:t=P:problem:kreska pseudotaktowa	!	!
4E\	.	.
=10-	=10-	=10-
4D/	.	.
4C/	.	.
!LO:TX:t=P:problem:kreska pseudotaktowa	!	!
2BB-/	.	.
2C/	.	diſ-
!LO:TX:t=P:problem:kreska pseudotaktowa	!	!
2AA/	-nar-	.
=11-	=11-	=11-
2BB-/	-chi-	-tor-
!LO:TX:t=P:problem:kreska pseudotaktowa	!	!
2C/	-a	.
2F,<\	.	-ta
!LO:TX:t=P:problem:kreska pseudotaktowa	!	!
2A\	Mo-	diſ-
=12-	=12-	=12-
2B-\	-nar-	.
2BB-/	.	-tor-
1C/	-chi-	-ta
=13-	=13-	=13-
!LO:TX:t=P:problem:kreska pseudotaktowa	!	!
1D\,<	-a	.
1r	.	.
=14-	=14-	=14-
2r	.	.
!LO:TX:t=P:problem:kreska pseudotaktowa	!	!
2AA/	reſ-	cor-
2BB-/	-pi-	-da
2C/	-ce	nos-
=15-	=15-	=15-
!LO:TX:t=P:problem:kreska pseudotaktowa	!	!
1D\	nos	-tra
2E\	.	.
1G\	Di-	por-
=16-	=16-	=16-
.	.	.
2F\	.	.
!LO:TX:t=P:problem:kreska pseudotaktowa	!	!
1G\,<	-a,	-ta
!!LO:LB:g=original
=17-	=17-	=17-
2r	.	.
!LO:TX:t=P:problem:kreska pseudotaktowa	!	!
2C/	et	in
2D\	e-	mor-
2D\	-ru-	.
=18-	=18-	=18-
2.E\	-a-	-tis
8D/L	.	do-
!LO:TX:t=P:problem:kreska pseudotaktowa	!	!
8E/J	.	.
2.F\	.	-lo-
4G\	.	.
=19-	=19-	=19-
2A\	.	.
!LO:TX:t=P:problem:kreska pseudotaktowa	!	!
2D/	.	.
*lig	*	*
2A\	.	.
2G\	.	-ri-
=20-	=20-	=20-
*Xlig	*	*
!LO:TX:t=P:problem:kreska pseudotaktowa	!	!
1C/,<	-mur	-bus
1C/	er-	Cli-
=21-	=21-	=21-
1D\	-van-	-en-
!LO:TX:t=P:problem:kreska pseudotaktowa	!	!
1E\,<	-tes	-tes
=22-	=22-	=22-
(4F\	in	con-
4E\	.	.
4D\	.	.
!LO:TX:t=P:problem:kreska pseudotaktowa	!	!
4C\)	.	.
4BB-/	.	-for-
4AA/	.	.
4GG/	.	.
!LO:TX:t=P:problem:kreska pseudotaktowa	!	!
4BB-/	.	.
=23-	=23-	=23-
2AA/	.	.
!LO:TX:t=P:problem:kreska pseudotaktowa	!	!
2FF/	.	.
1C/	vi-	-ta.
=24-	=24-	=24-
0FF/;	-a	.
!!LO:LB:g=original
=25-	=25-	=25-
*M2/2	*	*
*met(c|)	*	*
1F\	2. Ma-	4. Vir-
2D\	-ri-	-go
!LO:TX:t=P:problem:kreska pseudotaktowa	!	!
(<2F\	-a	.
=26-	=26-	=26-
!LO:N:cue:xstem	!	!
4F)	.	.
4E\	.	De-
4D\	.	.
!LO:TX:t=P:problem:kreska pseudotaktowa	!	!
4C\	.	.
2BB-/	.	.
!LO:TX:t=P:problem:kreska pseudotaktowa	!	!
2GG/	be-	-o
=27-	=27-	=27-
0C/	-a-	ple-
=28-	=28-	=28-
2FF,</	-ta	-na
1F\	do-	Tu
!LO:TX:t=P:problem:kreska pseudotaktowa	!	!
2E\	-ce	.
=29-	=29-	=29-
1D\	nos	Lu-
!LO:TX:t=P:problem:kreska pseudotaktowa	!	!
1C/	.	-na
=30-	=30-	=30-
2.D\	man-	se-
!LO:TX:t=P:problem:kreska pseudotaktowa	!	!
4E\	.	.
2F\	-da-	-re-
!LO:TX:t=P:problem:kreska pseudotaktowa	!	!
2E\	.	.
=31-	=31-	=31-
*lig	*	*
2F\	.	.
2G\	.	.
*Xlig	*	*
!LO:TX:t=P:problem:kreska pseudotaktowa	!	!
0C/,<	-ta	-na
=32-	=32-	=32-
.	.	.
!!LO:LB:g=original
1G\	no-	Per
=33-	=33-	=33-
!LO:TX:t=P:problem:kreska pseudotaktowa	!	!
1C/,<	-v(a)e	vo-
2.F\	le-	-ta
!LO:TX:t=P:problem:kreska pseudotaktowa	!	!
4E\	.	.
=34-	=34-	=34-
4D/	.	.
4C/	.	.
!LO:TX:t=P:problem:kreska pseudotaktowa	!	!
2BB-/	.	.
2C/	-gis	mil-
!LO:TX:t=P:problem:kreska pseudotaktowa	!	!
2AA/	no-	.
=35-	=35-	=35-
2BB-/	-v(a)e	-le-
!LO:TX:t=P:problem:kreska pseudotaktowa	!	!
2C,</	le-	-na
2F\	-gis	mil-
!LO:TX:t=P:problem:kreska pseudotaktowa	!	!
2A\	.	.
=36-	=36-	=36-
2B-\	.	-le-
!LO:TX:t=P:problem:kreska pseudotaktowa	!	!
2BB-/	gra-	.
1C/	.	-na
=37-	=37-	=37-
!LO:TX:t=P:problem:kreska pseudotaktowa	!	!
1D\,<	-ta	.
1r	.	.
=38-	=38-	=38-
2r	.	.
2AA/	nos	Te
2BB-/	ser-	.
!LO:TX:t=P:problem:kreska pseudotaktowa	!	!
2C/	.	nos-
=39-	=39-	=39-
!LO:TX:t=P:problem:kreska pseudotaktowa	!	!
1D\	-va-	-tra
2E,<\	-re	Ca-
1G\	ra-	-ma(e)-
=40-	=40-	=40-
.	.	.
2F\	-ta	.
!LO:TX:t=P:problem:kreska pseudotaktowa	!	!
1G\,<	.	-na
=41-	=41-	=41-
2r	.	.
2C/	Vir-	o-
1D\	-go	-rat
=42-	=42-	=42-
!LO:TX:t=P:problem:kreska pseudotaktowa	!	!
1E\	.	sit
2.F\	Vir-	in
4G\	.	a-
=43-	=43-	=43-
2A\	.	.
2D\	.	.
*lig	*	*
2A\	-gi-	-ri-
2G\	.	.
=44-	=44-	=44-
*Xlig	*	*
!LO:TX:t=P:problem:kreska pseudotaktowa	!	!
1C/,<	-num	-bus
!LO:TX:t=P:problem:kreska pseudotaktowa	!	!
1C/	et	tu-
=45-	=45-	=45-
1D\	in-	-is
2E\	-te-	per
!LO:TX:t=P:problem:kreska pseudotaktowa	!	!
2E\	-me-	a-
=46-	=46-	=46-
4F\	-ra-	-m(a)e-
4E\	.	.
4D\	.	.
!LO:TX:t=P:problem:kreska pseudotaktowa	!	!
4C/	.	.
4BB-/	.	.
4AA/	.	.
4GG/	.	.
4BB-/	.	.
=47-	=47-	=47-
2AA/	.	.
!LO:TX:t=P:problem:kreska pseudotaktowa	!	!
2FF/	.	.
1C/	-ta.	-na.
=48-	=48-	=48-
00FF/;	.	.
==	==	==
*-	*-	*-
!!!RDF**kern: > = above
!!!RDF**kern: < = below
!!!RDF**dynam: p =
!!!EED: Leszek Kubiak
!!!EST: 2021-02-27
!!!ENC: Mateusz Solarz
!!!END: 2021-02-18
